X: 101
T:Missa Mon seul plaisir / Kyrie
N: Derived from Jos0902a-Missa_Mon_seul_plaisir-Kyrie.krn
C: Josquin des Prez
%%abc-version 2.0
%%abcx-abcm2ps-target-version 5.9.1 (29 Sep 2008)
%%abc-creator hum2abc beta
%%abcx-conversion-date 2019/02/12 16:15:43
%%abc-edited-by Jesse Rodin
%%abc-edited-by Reinier de Valk; Victoria Chang 2012/03/28
%%abcx-initial-encoding-date 2012/03/28/
%%humdrum-veritas 2229244167
%%humdrum-veritas-data 1518541894
%%linebreak <none>
%%barnumbers 0
L: 1/4
M: 2/1
Q: 1/2=120
%%staves {1 2}
V: 1 clef=treble-8
V: 2 clef=bass
K: C
[V:1] G8 | 
[V:2] G,8 | 
[V:1] F4F4 | 
[V:2] D,8 | 
[V:1] G4c4- | 
[V:2] E,4C,4 | 
[V:1] c2BAB2AB | 
[V:2] G,8 | 
[V:1] c2B2GABc | 
[V:2] C,2G,3F,E,2 | 
[V:1] d8- | 
[V:2] D,4G,,2D,2- | 
[V:1] d4c4 | 
[V:2] D,C,B,,2A,,4 | 
[V:1] B4G2c2- | 
[V:2] G,,4G,2F,2- | 
[V:1] c2B2A4 | 
[V:2] F,2G,2D,4 | 
[V:1] G8 | 
[V:2] E,8 | 
[V:1] z8 | 
[V:2] C,3D,E,2F,2- | 
[V:1] z8 | 
[V:2] F,E,D,C,D,4 | 
[V:1] G8- | 
[V:2] C,6B,,A,, | 
[V:1] G4E4 | 
[V:2] G,,4A,,4 | 
[V:1] F4G4 | 
[V:2] D,4G,,4 | 
[V:1] E2A4c2 | 
[V:2] A,,8 | 
[V:1] B4A4 | 
[V:2] E,4F,4 | 
[V:1] c2e3de2 | 
[V:2] E,8 | 
[V:1] A2d4B2 | 
[V:2] D,4G,4 | 
[V:1] c4B2e2 | 
[V:2] E,2F,2D,2G,2 | 
[V:1] c2f2e3d | 
[V:2] A,2D,2E,4 | 
[V:1] c2d2B4 | 
[V:2] F,4D,2E,2 | 
[V:1] A4z4 | 
[V:2] C,2D,4C,B,, | 
[V:1] z8 | 
[V:2] A,,2G,,2A,,4 | 
[V:1] z4G4 | 
[V:2] G,,4G,4 | 
[V:1] c8 | 
[V:2] F,4A,4 | 
[V:1] d3cd4 | 
[V:2] G,F,G,A,G,2D,2 | 
[V:1] cBAGA4 | 
[V:2] F,2G,2D,4 | 
[V:1] !fermata!G8 ||  
[V:2] !fermata!G,,8 ||  
[V:1]  [K:C] [K:clef=treble-8][M:2/1]z8 | 
[V:2]  [K:C] [K:clef=bass][M:2/1]C,6B,,2 | 
[V:1] c6B2 | 
[V:2] A,,4G,,4 | 
[V:1] A4G4 | 
[V:2] C,4B,,4 | 
[V:1] c6B2- | 
[V:2] A,,6G,,2 | 
[V:1] BAA4^G2 | 
[V:2] A,,2C,2B,,4 | 
[V:1] A8 | 
[V:2] A,,4z4 | 
[V:1] z8 | 
[V:2] A,,4E,4 | 
[V:1] A4e4- | 
[V:2] A,,4z4 | 
[V:1] e2f3ee2- | 
[V:2] A,,4E,2G,2 | 
[V:1] e2d2e4 | 
[V:2] F,4E,4 | 
[V:1] z2A2c3d | 
[V:2] A,,8 | 
[V:1] e2d2c3B/A/ | 
[V:2] z2A,,2C,2D,2 | 
[V:1] G3AB4 | 
[V:2] E,3F,G,4 | 
[V:1] AGG4^F2 | 
[V:2] C,2E,2D,4 | 
[V:1] G4z4 | 
[V:2] C,4C,3D, | 
[V:1] z8 | 
[V:2] E,2F,2G,2A,2 | 
[V:1] z8 | 
[V:2] D,2A,2G,4 | 
[V:1] E6F2 | 
[V:2] C,4A,,2D,2 | 
[V:1] G2A2B2c2 | 
[V:2] C,2F,2E,2A,2 | 
[V:1] dcBAB4 | 
[V:2] G,2A,2E,4 | 
[V:1] A4z4 | 
[V:2] F,2D,2G,3F, | 
[V:1] z8 | 
[V:2] E,D,E,C,D,4 | 
[V:1] z8 | 
[V:2] G,,4A,,4 | 
[V:1] G6F2 | 
[V:2] G,,4D,4 | 
[V:1] G4A4 | 
[V:2] E,4D,4 | 
[V:1] G8 | 
[V:2] G,,4z4 | 
[V:1] z4G4 | 
[V:2] G,8 | 
[V:1] A4G4 | 
[V:2] F,4G,4 | 
[V:1] c8 | 
[V:2] A,4F,4 | 
[V:1] B6c2- | 
[V:2] G,6F,2- | 
[V:1] c2A2B2c2 | 
[V:2] F,4G,2C,2 | 
[V:1] G4A4 | 
[V:2] E,4D,4 | 
[V:1] G8 ||  
[V:2] G,,8 ||  
[V:1]  [K:C] [K:clef=treble-8][M:2/1]G8 | 
[V:2]  [K:C] [K:clef=bass][M:2/1]G,8 | 
[V:1] F4F4 | 
[V:2] D,8 | 
[V:1] G4GABc | 
[V:2] E,4C,4 | 
[V:1] B2c4B2 | 
[V:2] G,2C,2G,4 | 
[V:1] c2d3ec2 | 
[V:2] C,2G,3F,E,2 | 
[V:1] d2cBA4 | 
[V:2] D,4z2D,2 | 
[V:1] G4c4 | 
[V:2] E,4C,4 | 
[V:1] d8 | 
[V:2] G,8 | 
[V:1] c3B/A/G4 | 
[V:2] C,4E,4 | 
[V:1] A4z2A2 | 
[V:2] D,3C,/B,,/A,,4 | 
[V:1] B4A4 | 
[V:2] G,,4D,4 | 
[V:1] c4B2G2 | 
[V:2] A,,4E,4 | 
[V:1] A3Bc2BA | 
[V:2] F,2E,D,C,3D, | 
[V:1] G2A4F2 | 
[V:2] E,2A,,2D,4 | 
[V:1] G2E3DG2- | 
[V:2] G,,2C,4B,,2 | 
[V:1] G2^F2G4 | 
[V:2] A,,4G,,4 | 
[V:1] B3cd4 | 
[V:2] G,4D,4 | 
[V:1] c4B4 | 
[V:2] F,4G,4 | 
[V:1] A8 | 
[V:2] D,8 | 
[V:1] (3:2:2G8E4 | 
[V:2] (3:2:2E,8C,4 | 
[V:1] (3F4G4E4 | 
[V:2] (3D,4E,4A,,4 | 
[V:1] (3F4G4E4- | 
[V:2] (3D,4G,,4A,,4- | 
[V:1] (3:2:5E2A4^G ^F^G4 | 
[V:2] (3:2:2A,,4E,8 | 
[V:1] (3A4c4B4 | 
[V:2] (3:2:2A,,8E,4 | 
[V:1] (3:2:2A6F6 | 
[V:2] (3:2:2A,,6D,6 | 
[V:1] (3G6A4B2 | 
[V:2] (3:2:2E,6D,6 | 
[V:1] (3c4d4G4- | 
[V:2] (3C,4B,,4C,4 | 
[V:1] (3:2:2G4A8 | 
[V:2] (3:2:2E,4D,8 | 
[V:1] G8 | 
[V:2] G,,4z2G,2- | 
[V:1] z8 | 
[V:2] G,2F,2E,2D,2 | 
[V:1] z8 | 
[V:2] C,2A,,2B,,4 | 
[V:1] e6d2 | 
[V:2] A,,8- | 
[V:1] c4B4 | 
[V:2] A,,4E,4 | 
[V:1] A3GF2G2- | 
[V:2] F,6C,2- | 
[V:1] GFEDE4 | 
[V:2] C,2D,2A,,4 | 
[V:1] D4z2D2 | 
[V:2] B,,4G,,4 | 
[V:1] G4G2G2 | 
[V:2] z2G,,2G,,2G,,2 | 
[V:1] GABcd2B2 | 
[V:2] G,2F,E,D,4 | 
[V:1] c8 | 
[V:2] C,4z2C,2 | 
[V:1] B2AGA2B2- | 
[V:2] G,2F,E,D,2G,,2- | 
[V:1] BAG4^F2 | 
[V:2] G,,2B,,2A,,4 | 
[V:1] G6D2 | 
[V:2] G,,4G,2F,2 | 
[V:1] G4A4 | 
[V:2] E,4D,4 | 
[V:1] G2B6 | 
[V:2] G,,4z2G,,2 | 
[V:1] c2A4G2- | 
[V:2] C,2C,2B,,2B,,2 | 
[V:1] G^F^FEG2A2 | 
[V:2] A,,2A,,2G,,2F,2 | 
[V:1] B2c2A4 | 
[V:2] G,2C,2D,4 | 
[V:1] G8 |]  
[V:2] G,,8 |]  



